X:2967
T:January Waltz
O:england
M:3/4
L:1/4
C:Taz Tarry
S:Copyright B.Tarry, 16th. August 1992
R:Waltz
K:G
B|BAd|d2c/2B/2|ABA|AGA|e2d/2c/2|BAG|ABA|1d2:|2G3||
GA_B|_BAG|=FDD|DCD|GA_B|_BAG|Bcd|e3|
ede|edc|BAB|BAG|FAd|ecA|ABA|G2||


